public/assets/images/icons/contact.svg

<svg width="93" height="76" viewBox="0 0 93 76" fill="none" xmlns="http://www.w3.org/2000/svg">
<path d="M53.6142 75.7015H38.8805V71.0398H53.6142C64.3155 71.0398 73.0298 62.6451 73.0298 52.3363V24.1199C73.0298 13.8111 64.3155 5.41634 53.6142 5.41634H38.8805C28.1792 5.41634 19.4648 13.8111 19.4648 24.1199V54.6481H14.6257V24.1199C14.6257 11.234 25.5039 0.754639 38.8805 0.754639H53.6142C66.9908 0.754639 77.869 11.234 77.869 24.1199V52.3363C77.869 65.2222 66.9908 75.7015 53.6142 75.7015Z" fill="#194BFF"/>
<path d="M19.278 54.6666H10.9645C4.93637 54.6666 0.0310059 49.9481 0.0310059 44.1495V37.0622C0.0310059 31.2635 4.93637 26.5449 10.9645 26.5449H19.278V54.6856V54.6666ZM10.9645 31.1876C7.59587 31.1876 4.87726 33.8217 4.87726 37.0432V44.1305C4.87726 47.3709 7.61557 49.986 10.9645 49.986H14.4317V31.1688H10.9645V31.1876Z" fill="#194BFF"/>
<path d="M81.5277 54.6674H73.2144V26.5269H81.5277C87.556 26.5269 92.4613 31.2453 92.4613 37.044V44.1313C92.4613 49.93 87.556 54.6486 81.5277 54.6486M78.0606 49.9869H81.5277C84.8768 49.9869 87.6151 47.3528 87.6151 44.1313V37.044C87.6151 33.8036 84.8768 31.1886 81.5277 31.1886H78.0606V50.0058V49.9869Z" fill="#194BFF"/>
<path d="M38.9262 75.7015H34.085V59.3069H58.4093V73.3948H53.568V63.9966H38.9262V75.7015Z" fill="#194BFF"/>
</svg>

<?xml version="1.0" encoding="UTF-8"?>
<svg id="Capa_1" xmlns="http://www.w3.org/2000/svg" version="1.1" viewBox="0 0 93 76">
  <!-- Generator: Adobe Illustrator 30.0.0, SVG Export Plug-In . SVG Version: 2.1.1 Build 123)  -->
  <defs>
    <style>
      .st0 {
        fill: #e96205;
      }
    </style>
  </defs>
  <path class="st0" d="M53.61,75.7h-14.73v-4.66h14.73c10.7,0,19.42-8.39,19.42-18.7v-28.22c0-10.31-8.71-18.7-19.42-18.7h-14.73c-10.7,0-19.42,8.39-19.42,18.7v30.53h-4.84v-30.53C14.63,11.23,25.5.75,38.88.75h14.73c13.38,0,24.25,10.48,24.25,23.37v28.22c0,12.89-10.88,23.37-24.25,23.37Z"/>
  <path class="st0" d="M19.28,54.67h-8.31C4.94,54.67.03,49.95.03,44.15v-7.09C.03,31.26,4.94,26.54,10.96,26.54h8.31v28.14-.02ZM10.96,31.19c-3.37,0-6.09,2.63-6.09,5.86v7.09c0,3.24,2.74,5.86,6.09,5.86h3.47v-18.82h-3.47v.02Z"/>
  <path class="st0" d="M81.53,54.67h-8.31v-28.14h8.31c6.03,0,10.93,4.72,10.93,10.52v7.09c0,5.8-4.91,10.52-10.93,10.52M78.06,49.99h3.47c3.35,0,6.09-2.63,6.09-5.86v-7.09c0-3.24-2.74-5.86-6.09-5.86h-3.47v18.82-.02Z"/>
  <path class="st0" d="M38.93,75.7h-4.84v-16.39h24.32v14.09h-4.84v-9.4h-14.64v11.7Z"/>
</svg>
